src/assets/images/products/star-outline-icon.svg

<svg width="12" height="11" viewBox="0 0 12 11" fill="none" xmlns="http://www.w3.org/2000/svg">
<path fill-rule="evenodd" clip-rule="evenodd" d="M11.3896 4.4595L7.29501 4.13318L5.69478 0.648972L4.09454 4.13845L0 4.4595L3.10935 6.94897L2.17541 10.649L5.69478 8.68581L9.21415 10.649L8.2859 6.94897L11.3896 4.4595ZM5.69477 7.70161L3.55353 8.89634L4.12301 6.64371L2.23234 5.12792L4.72666 4.92792L5.69477 2.80687L6.66857 4.93319L9.16289 5.13319L7.27222 6.64897L7.8417 8.90161L5.69477 7.70161Z" fill="#F8475F"/>
</svg>

<svg width="12" height="11" fill="none" xmlns="http://www.w3.org/2000/svg"><path fill-rule="evenodd" clip-rule="evenodd" d="M11.39 4.46l-4.095-.327L5.695.65l-1.6 3.49L0 4.458l3.11 2.49-.935 3.7 3.52-1.963 3.52 1.963-.93-3.7 3.105-2.49zM5.695 7.702L3.554 8.896l.569-2.252-1.89-1.516 2.494-.2.968-2.121.974 2.126 2.494.2-1.89 1.516.569 2.253-2.147-1.2z" fill="#F8475F"/></svg>
